!!!COM: Gaspar van Weerbeke
!!!CDT: ~1450-~1517
!!!OPR: Missa Ave regina celorum
!!!OTL: Credo
!!!ONM: 3
!!!AGN: Mass
!!!SCT: Gas0101c
!!!SCA: Gas0101c
!!!voices: 4
**kern	**text	**kern	**text	**kern	**text	**kern	**text
*part4	*part4	*part3	*part3	*part2	*part2	*part1	*part1
*staff4	*staff4	*staff3	*staff3	*staff2	*staff2	*staff1	*staff1
*I"Bassus	*	*I"Tenor	*	*I"Altus	*	*I"Superius	*
*I'B	*	*I'T	*	*I'A	*	*I'S	*
*clefF4	*	*clefF4	*	*clefGv2	*	*clefGv2	*
*k[b-]	*	*k[b-]	*	*k[b-]	*	*k[b-]	*
*M3/2	*	*M3/2	*	*M3/2	*	*M3/2	*
*met(O)	*	*met(O)	*	*met(O)	*	*met(O)	*
=1	=1	=1	=1	=1	=1	=1	=1
*	*	*	*	*col	*	*	*
1.r	.	1.r	.	[1.F	Pa-	1F	Pa-
.	.	.	.	.	.	2F	-trem
=2	=2	=2	=2	=2	=2	=2	=2
1.r	.	1.r	.	2F]	.	4.A	om-
*	*	*	*	*Xcol	*	*	*
.	.	.	.	.	.	8B-y	.
.	.	.	.	4.E	-trem	4.c	-ni-
.	.	.	.	8C	.	8A	.
.	.	.	.	4D	om-	4B-y	.
.	.	.	.	[4E	-ni-	[4G	-pot-
=3	=3	=3	=3	=3	=3	=3	=3
1.r	.	1.r	.	4E]	.	4G]	.
.	.	.	.	2C	.	2c	-en-
.	.	.	.	2F	-pot-	4A	.
.	.	.	.	.	.	2G	-tem,
.	.	.	.	4E	-en-	.	.
=4	=4	=4	=4	=4	=4	=4	=4
1.r	.	1.r	.	2F	-tem,	4r	.
.	.	.	.	.	.	4F	fa-
.	.	.	.	2r	.	4G	-cto-
.	.	.	.	.	.	4G	-rem
.	.	.	.	2F	fa-	2A	ce-
!!LO:LB:g=original
=5	=5	=5	=5	=5	=5	=5	=5
1.r	.	1.r	.	4G	-cto-	4.B-y	.
.	.	.	.	4G	-rem	.	.
.	.	.	.	.	.	8A	.
.	.	.	.	2A	ce-	4.F	.
.	.	.	.	.	.	8G	.
.	.	.	.	2A	-li	8AL	.
.	.	.	.	.	.	8B-yJ	.
.	.	.	.	.	.	4c	.
=6	=6	=6	=6	=6	=6	=6	=6
1.r	.	1.r	.	1A	et	4F	-li
.	.	.	.	.	.	2f	et
.	.	.	.	.	.	2e	ter-
.	.	.	.	4G	ter-	.	.
.	.	.	.	4A	.	4f	.
=7	=7	=7	=7	=7	=7	=7	=7
1.r	.	1.r	.	4B-y	.	4g	.
.	.	.	.	2c	.	2a	.
.	.	.	.	4A	.	2f	.
.	.	.	.	2G	.	.	.
.	.	.	.	.	.	4e	.
=8	=8	=8	=8	=8	=8	=8	=8
2.FF	Vi-	1.F	Vi-	2A	-re,	2f	-re,
.	.	.	.	4.c	vi-	2a	vi-
4FF	-si-	.	.	.	.	.	.
.	.	.	.	8c	-si-	.	.
4FF	-bi-	.	.	4c	-bi-	2a	-si-
4FF	-li-	.	.	4c	-li-	.	.
!!LO:LB:g=original
=9	=9	=9	=9	=9	=9	=9	=9
2C	-um	2E	-si-	4c	-um	2g	-bi-
.	.	.	.	8GL	.	.	.
.	.	.	.	8AJ	.	.	.
4D	.	4D	.	4B-y	.	4f	-li-
*	*	*lig	*	*	*	*	*
2C	om-	2E	-bi-	2c	om-	4e	.
.	.	.	.	.	.	4c	-um
4D	.	[4D	.	4A	.	[4f	om-
=10	=10	=10	=10	=10	=10	=10	=10
4BB-y	.	4D]	.	4B-y	.	4f]	.
*	*	*Xlig	*	*	*	*	*
4C	.	2C	.	4G	.	2e	.
4AA	-ni-	.	.	4c	.	.	.
4FF	.	2F	-li-	4A	.	4f	.
2C	-um;	.	.	2G	-ni-	2g	-ni-
.	.	4E	.	.	.	.	.
=11	=11	=11	=11	=11	=11	=11	=11
2r	.	1F	-um	4F	-um,	2c	-um,
.	.	.	.	4.A	et	.	.
2FF	et	.	.	.	.	2c	et
.	.	.	.	8GL	in-	.	.
.	.	.	.	8FJ	.	.	.
.	.	.	.	16EL	-vi-	.	.
.	.	.	.	16DJ	.	.	.
4FF	in-	2F	om-	4C	-si-	2A	in-
4FF	-vi-	.	.	4F	-bi-	.	.
=12	=12	=12	=12	=12	=12	=12	=12
*	*	*lig	*	*	*	*	*
2C	-si-	1.G	.	2E	-li-	4G	-vi-
.	.	.	.	.	.	4c	-si-
4BB-y	-bi-	.	.	4D	-um.	4d	-bi-
4C	.	.	.	4r	.	4c	.
2GG	-li-	.	.	4.D	Et	2B-y	-li-
.	.	.	.	8E	.	.	.
!!LO:PB:g=original
=13	=13	=13	=13	=13	=13	=13	=13
2FF	-um.	[1.A	.	2F	in	2A	-um.
4F	Et	.	.	4.c	u-	2r	.
4F	in	.	.	.	.	.	.
.	.	.	.	8c	.	.	.
4F	u-	.	.	4A	.	4.c	Et
4F	-num	.	.	4F	-num	.	.
.	.	.	.	.	.	8c	in
=14	=14	=14	=14	=14	=14	=14	=14
4.FF	Do-	1A]	.	4.c	Do-	4A	u-
*	*	*Xlig	*	*	*	*	*
.	.	.	.	.	.	4F	-num
8FF	-mi-	.	.	8B-y	.	.	.
2FF	-num	.	.	8AL	.	4c	Do-
.	.	.	.	8GJ	.	.	.
.	.	.	.	4F	.	4A	.
2r	.	2G	-ni-	4G	-mi-	4.B-y	-mi-
.	.	.	.	4E	.	.	.
.	.	.	.	.	.	8G	.
=15	=15	=15	=15	=15	=15	=15	=15
*	*	*lig	*	*	*	*	*
2.F	Je-	1.A	-um,	2F	-num	2F	-num
.	.	.	.	4.A	Je-	2f	.
4D	.	.	.	.	.	.	.
.	.	.	.	8B-y	.	.	.
2C	-sum	.	.	4c	-sum	4e	Je-
.	.	.	.	4c	Chri-	4e	-sum
=16	=16	=16	=16	=16	=16	=16	=16
4.BB-y	Chri-	1B-y	.	2F	-stum,	4.d	Chri-
*	*	*Xlig	*	*	*	*	*
8C	.	.	.	.	.	8e	.
4D	.	.	.	4r	.	4f	.
4GG	.	.	.	4G	Fi-	2g	-stum,
2D	-stum,	2A	Fi-	4A	-li-	.	.
.	.	.	.	4A	-um	4f	.
!!LO:LB:g=original
=17	=17	=17	=17	=17	=17	=17	=17
4r	.	4G	.	4.B-y	De-	4b-y	fi-
2E-X	Fi-	4.B-y	.	.	.	8a	.
.	.	.	.	8c	.	4g	.
.	.	.	.	4e-X	.	.	.
.	.	8A	.	.	.	8f	.
4F	.	4F	.	4d	.	2f	-li-
2C	-li-	2G	-li-	2c	-i	.	.
.	.	.	.	.	.	4e	.
=18	=18	=18	=18	=18	=18	=18	=18
4D	-um	1.F	-um	4A	u-	4f	-um
4BB-y	De-	.	.	4B-y	.	4d	De-
4AA	-i	.	.	4c	.	4c	-i
2BB-y	u-	.	.	4F	-ni-	4.d	u-
.	.	.	.	4D	-ge-	.	.
.	.	.	.	.	.	8c	.
4FF	-ni-	.	.	4C	.	4A	-ni-
=19	=19	=19	=19	=19	=19	=19	=19
*	*	*lig	*	*	*	*	*
2BB-y	-ge-	1.F	De-	2D	-ni-	2B-y	-ge-
1FF	-ni-	.	.	2C	-tum.	4A	.
.	.	.	.	.	.	4.c	-ni-
.	.	.	.	4r	.	.	.
.	.	.	.	.	.	8B-y	.
.	.	.	.	4c	Et	4A	.
=20	=20	=20	=20	=20	=20	=20	=20
2C	-tum.	1E	.	4.c	ex	2G	-tum.
*	*	*Xlig	*	*	*	*	*
.	.	.	.	8B-y	.	.	.
4r	.	.	.	4G	.	2g	Et
4C	Et	.	.	4c	Pa-	.	.
4D	ex	2D	-i	4A	.	4f	ex
4BB-y	pa-	.	.	4B-y	.	4d	pa-
!!LO:LB:g=original
=21	=21	=21	=21	=21	=21	=21	=21
4C	-tre	1E	u-	4G	-tre	4c	-tre
4.AA	na-	.	.	2A	na-	4.e	na-
8BB-y	.	.	.	.	.	8d	.
4C	.	.	.	4G	.	2c	.
2GG	-tum	2D	-ni-	2G	-tum	.	.
.	.	.	.	.	.	4Bni	.
=22	=22	=22	=22	=22	=22	=22	=22
4r	.	2C	-ge-	2E	an-	2c	-tum
4C	an-	.	.	.	.	.	.
4BB-y	-te	4D	.	4D	-te	4G	an-
4AA	om-	2F	.	2C	om-	4A	-te
2GG	-ni-	.	.	.	.	4B-y	om-
.	.	4E	-ni-	4BB-y	-ni-	4B-y	-ni-
=23	=23	=23	=23	=23	=23	=23	=23
4.FF	-a	1F	-tum.	4C	-a	4.A	-a
.	.	.	.	2c	.	.	.
8GG	.	.	.	.	.	8B-y	.
4AA	.	.	.	.	.	4c	.
4.BB-y	.	.	.	4.B-y	.	4.d	.
.	.	2r	.	.	.	.	.
8C	.	.	.	8A	.	8c	.
[4D	se-	.	.	[4F	se-	[4A	se-
=24	=24	=24	=24	=24	=24	=24	=24
8D]L	.	1.r	.	4F]	.	4A]	.
8CJ	.	.	.	.	.	.	.
4.E-X	.	.	.	4.G	-cu-	8GL	.
.	.	.	.	.	.	8AJ	.
.	.	.	.	.	.	8B-yL	.
8D	.	.	.	8F	.	8cJ	.
4BB-y	.	.	.	2B-y	-la.	4d	.
2C	-cu-	.	.	.	.	2e-i	-cu-
.	.	.	.	4A	.	.	.
!!LO:LB:g=original
=25	=25	=25	=25	=25	=25	=25	=25
*	*	*lig	*	*	*	*	*
*	*	*col	*	*	*	*	*
4BB-y	-la.	1F	De-	4.B-y	De-	4d	-la.
4.D	De-	.	.	.	.	4.f	De-
.	.	.	.	8A	.	.	.
.	.	.	.	8FL	.	.	.
8E	.	.	.	8G	.	8eL	.
4F	.	.	.	8A	.	8c	.
.	.	.	.	8B-yJ	.	8dJ	.
4C	-um	[2G	-um	4.c	-um	8eL	-um
.	.	.	.	.	.	8fJ	.
[4E	de	.	.	.	.	[4g	de
.	.	.	.	8B-y	.	.	.
=26	=26	=26	=26	=26	=26	=26	=26
8EL]	.	2G]	de	4G	de	8gL]	.
*	*	*Xcol	*	*	*	*	*
*	*	*Xlig	*	*	*	*	*
8D	.	.	.	.	.	8f	.
8C	.	.	.	4.G	De-	8e	.
8BB-yJ	.	.	.	.	.	8dJ	.
*	*	*lig	*	*	*	*	*
4.C	De-	1G	De-	.	.	4.e	De-
.	.	.	.	8FL	.	.	.
.	.	.	.	8E	.	.	.
8BB-y	.	.	.	8DJ	.	8f	.
2GG	.	.	.	2E	-o,	2g	.
=27	=27	=27	=27	=27	=27	=27	=27
2FF	-o,	1A	-o,	2F	lu-	2c	-o,
*	*	*Xlig	*	*	*	*	*
2FF	lu-	.	.	4F	-men	2d	lu-
.	.	.	.	4F	de	.	.
2EE	-men	4r	.	2G	lu-	2e	-men
.	.	4G	De-	.	.	.	.
!!LO:PB:g=original
=28	=28	=28	=28	=28	=28	=28	=28
2FF	de	2A	.	2F	-mi-	4r	.
.	.	.	.	.	.	4c	de
4.BB-y	lu-	1B-y	.	1F	-ne,	4.d	lu-
8C	.	.	.	.	.	8e	.
4.D	.	.	.	.	.	4.f	-mi-
8E	.	.	.	.	.	8e	.
=29	=29	=29	=29	=29	=29	=29	=29
2F	-mi-	2A	.	4r	.	4.c	-ne,
.	.	.	.	2c	De-	.	.
.	.	.	.	.	.	8d	.
2C	-ne,	1G	-um	.	.	8eL	.
.	.	.	.	.	.	8fJ	.
.	.	.	.	2c	-um	4.g	De-
4r	.	.	.	.	.	.	.
.	.	.	.	.	.	8f	.
4C	De-	.	.	4c	ve-	4e	.
=30	=30	=30	=30	=30	=30	=30	=30
4D	.	4F	ve-	4B-y	.	4d	-um
4C	.	4E	.	4.c	.	2g	ve-
*	*	*lig	*	*	*	*	*
2D	-um	2F	.	.	.	.	.
.	.	.	.	8A	.	.	.
.	.	.	.	4B-y	.	2f	.
2C	ve-	2G	.	2c	.	.	.
.	.	.	.	.	.	4e	.
=31	=31	=31	=31	=31	=31	=31	=31
2FF	-rum	1F	-rum	2A	-rum	2f	-rum
*	*	*Xlig	*	*	*	*	*
4.FF	de	.	.	4.A	de	2r	.
8GG	.	.	.	8G	.	.	.
2AA	De-	2r	.	2E	De-	2c	de
!!LO:LB:g=original
=32	=32	=32	=32	=32	=32	=32	=32
4BB-y	.	2r	.	4D	.	4d	De-
4C	.	.	.	4C	.	4e	.
4D	-o	2r	.	4F	-o	4f	-o
4E	.	.	.	4G	ve	2e	ve-
2F	ve-	2F	de	4A	.	.	.
.	.	.	.	4B-y	.	4d	.
=33	=33	=33	=33	=33	=33	=33	=33
2C	-ro.	4.G	De-	2c	ro.	2e	-ro.
.	.	8A	.	.	.	.	.
4r	.	4B-y	-o	4d	Ge-	2r	.
2C	Ge-	2A	ve-	4c	.	.	.
.	.	.	.	4A	-ni-	4r	.
4BB-y	.	4G	.	4B-y	.	[4g	Ge-
=34	=34	=34	=34	=34	=34	=34	=34
2AA	.	2A	-ro.	4c	-tum,	4g]	.
.	.	.	.	4C	non	4f	.
4GG	.	4r	.	4BB-y	fa-	4e	.
4AA	-ni-	2c	Ge-	4C	.	4c	-ni-
2GG	-tum,	.	.	2G	-ctum,	2d	-tum,
.	.	4B-y	.	.	.	.	.
=35	=35	=35	=35	=35	=35	=35	=35
4r	.	4A	.	1.r	.	4c	non
4FF	non	4F	-ni-	.	.	4d	.
2EE	fa-	2G	-tum	.	.	2e	fa-
4FF	.	4F	non	.	.	2c	-ctum,
4EE	.	4G	.	.	.	.	.
!!LO:LB:g=original
=36	=36	=36	=36	=36	=36	=36	=36
4.FF	-ctum,	2A	fa-	2C	con-	2r	.
8GG	.	.	.	.	.	.	.
2AA	con-	2F	-ctum,	4C	-sub-	2c	con-
.	.	.	.	4C	-stan-	.	.
2FF	-sub-	2r	.	2F	-ti-	2A	-sub-
=37	=37	=37	=37	=37	=37	=37	=37
4.BB-y	-stan-	2F	con-	4.D	-a-	2B-y	-stan-
8C	.	.	.	8E	.	.	.
8DL	.	2D	-sub-	2F	.	2A	-ti-
8EJ	.	.	.	.	.	.	.
4F	-ti-	.	.	.	.	.	.
2C	-a-	2E	-stan-	2G	.	4G	.
.	.	.	.	.	.	[4c	-a-
=38	=38	=38	=38	=38	=38	=38	=38
2GG	-lem	2D	-tia-	2G	-lem	4c]	.
.	.	.	.	.	.	4Bnj	.
4r	.	2C	-lem	4G	Pa-	4c	.
4C	Pa-	.	.	4c	.	4e	.
4D	.	4r	.	4A	.	2d	-lem
4BB-y	.	[4F	Pa-	4B-y	.	.	.
=39	=39	=39	=39	=39	=39	=39	=39
2C	.	4F]	.	4.G	.	2c	Pa-
.	.	4E	.	.	.	.	.
.	.	.	.	8A	.	.	.
4BB-y	.	4F	.	4B-y	.	4d	.
4AA	.	4A	.	4c	.	2f	.
4BB-y	.	2G	.	4d	.	.	.
4C	.	.	.	4c	.	4e	.
!!LO:LB:g=original
=40	=40	=40	=40	=40	=40	=40	=40
4FF	-tri:	1F	-tri:	4A	-tri:	2f	-tri:
2BB-y	per	.	.	4.d	per	.	.
.	.	.	.	.	.	4r	.
.	.	.	.	8c	.	.	.
4D	.	.	.	4B-y	.	4f	per
2C	.	2r	.	4G	.	4.g	.
.	.	.	.	4A	.	.	.
.	.	.	.	.	.	8f	.
=41	=41	=41	=41	=41	=41	=41	=41
2BB-y	quem	1F	per	2B-y	quem	2d	quem
4AA	.	.	.	4c	.	4c	.
2BB-y	.	.	.	4B-y	.	2d	.
.	.	2G	.	4d	.	.	.
4C	.	.	.	[4c	.	4e	.
=42	=42	=42	=42	=42	=42	=42	=42
*	*	*lig	*	*	*	*	*
4AA	om-	2A	quem	4c]	.	4c	om-
4.D	.	.	.	2F	om-	4.f	.
.	.	1B-y	.	.	.	.	.
*	*	*Xlig	*	*	*	*	*
8CL	.	.	.	.	.	8eL	.
8BB-y	.	.	.	4.G	.	8d	.
8AAJ	.	.	.	.	.	8cJ	.
2GG	-ni-	.	.	.	.	2d	-ni-
.	.	.	.	8F	.	.	.
.	.	.	.	4D	.	.	.
=43	=43	=43	=43	=43	=43	=43	=43
*	*	*col	*	*	*	*	*
*	*	*lig	*	*	*	*	*
2.C	-a	1c	om-	4E	-ni-	4.c	-a
.	.	.	.	4C	.	.	.
.	.	.	.	.	.	8d	.
.	.	.	.	2G	-a	8eL	.
.	.	.	.	.	.	8fJ	.
4.E	fa-	.	.	.	.	2g	fa-
.	.	[2B-y	-ni-	4r	.	.	.
8D	.	.	.	.	.	.	.
[4BB-y	.	.	.	[4D	fa-	[4f	.
!!LO:PB:g=original
=44	=44	=44	=44	=44	=44	=44	=44
8BB-L]	.	2B-]	.	4D]	.	8f]L	.
8C	.	.	.	.	.	8eJ	.
8D	.	.	.	4.F	.	4d	.
8EJ	.	.	.	.	.	.	.
2F	-cta,	1A	-a	.	.	2c	-cta,
*	*	*Xcol	*	*	*	*	*
.	.	.	.	8GL	.	.	.
*	*	*Xlig	*	*	*	*	*
.	.	.	.	8A	.	.	.
.	.	.	.	8B-yJ	.	.	.
*	*	*	*	*	*	*	*edit
2FF	.	.	.	2c	-cta,	4.c	fa-
.	.	.	.	.	.	8d	.
=45	=45	=45	=45	=45	=45	=45	=45
*	*edit	*	*	*	*edit	*	*
4C	fa-	4.G	fa-	4.c	fa-	4.e-X	.
4.E-i	.	.	.	.	.	.	.
.	.	8A	.	8B-y	.	8d	.
.	.	4.B-y	.	4G	.	4B-y	.
8D	.	.	.	.	.	.	.
4BB-y	.	.	.	4d	.	2f	.
.	.	8A	.	.	.	.	.
*lig	*	*	*	*	*	*	*
2C	-cta	8GL	.	4.c	.	.	.
.	.	8FJ	.	.	.	.	.
.	.	4G	.	.	.	4enX	.
.	.	.	.	8B-y	.	.	.
=46	=46	=46	=46	=46	=46	=46	=46
2D	.	4F	.	8AL	.	2f	.
*Xlig	*	*	*	*	*	*	*
.	.	.	.	8GJ	.	.	.
.	.	2A	.	2F	.	.	.
2r	.	.	.	.	.	4c	.
.	.	4B-y	.	4BB-y	-cta	4d	.
2r	.	2G	-cta	2C	.	8eL	-cta
.	.	.	.	.	.	8d	.
.	.	.	.	.	.	8c	.
.	.	.	.	.	.	8B-yJ	.
=47	=47	=47	=47	=47	=47	=47	=47
*	*	*	*	*	*Xedit	*	*Xedit
1FF;	sunt.	1F;	sunt.	1D;	sunt.	1A;	sunt.
!!LO:LB:g=original
=48||	=48||	=48||	=48||	=48||	=48||	=48||	=48||
*M2/2	*	*M2/2	*	*M2/2	*	*M2/2	*
*met(C|)	*	*met(C|)	*	*met(C|)	*	*met(C|)	*
1r	.	1r	.	1C	Qui	2.c	Qui
.	.	.	.	.	.	8B-yL	.
.	.	.	.	.	.	8AJ	.
=49	=49	=49	=49	=49	=49	=49	=49
1r	.	1r	.	2C	pro-	4G	pro-
.	.	.	.	.	.	4.A	.
.	.	.	.	[2D	.	.	.
.	.	.	.	.	.	8G	.
.	.	.	.	.	.	[4B-y	.
=50	=50	=50	=50	=50	=50	=50	=50
1r	.	1r	.	2D]	.	8B-]L	.
.	.	.	.	.	.	8A	.
.	.	.	.	.	.	8G	.
.	.	.	.	.	.	8FJ	.
.	.	.	.	2E	-pter	2G	-pter
=51	=51	=51	=51	=51	=51	=51	=51
*	*Xedit	*	*	*	*	*	*
1FF	Qui	1r	.	2.F	nos	2F	nos
.	.	.	.	.	.	2r	.
.	.	.	.	8EL	.	.	.
.	.	.	.	8DJ	.	.	.
=52	=52	=52	=52	=52	=52	=52	=52
2FF	pro-	1r	.	4C	.	1r	.
.	.	.	.	4.D	ho-	.	.
[2GG	.	.	.	.	.	.	.
.	.	.	.	8C	.	.	.
.	.	.	.	[4E-X	.	.	.
=53	=53	=53	=53	=53	=53	=53	=53
2GG]	.	1r	.	8E-]L	.	1r	.
.	.	.	.	8D	.	.	.
.	.	.	.	8C	.	.	.
.	.	.	.	8BB-yJ	.	.	.
2AA	-pter	.	.	2C	-mi-	.	.
!!LO:LB:g=original
=54	=54	=54	=54	=54	=54	=54	=54
*	*	*	*	*	*	*	*edit
2.BB-y	nos	1r	.	2BB-y	-nes,	1F	ho-
.	.	.	.	2r	.	.	.
4C	.	.	.	.	.	.	.
=55	=55	=55	=55	=55	=55	=55	=55
2D	ho-	1r	.	1r	.	2F	-mi-
4C	.	.	.	.	.	[2G	.
[4E-X	.	.	.	.	.	.	.
=56	=56	=56	=56	=56	=56	=56	=56
8E-]L	.	1r	.	1r	.	2G]	.
8D	.	.	.	.	.	.	.
8C	.	.	.	.	.	.	.
8BB-yJ	.	.	.	.	.	.	.
2C	-mi-	.	.	.	.	2A	-nes,
=57	=57	=57	=57	=57	=57	=57	=57
*	*	*	*	*	*	*	*Xedit
1BB-y	-nes,	1r	.	1F	et	4B-y	et
.	.	.	.	.	.	2d	.
.	.	.	.	.	.	8cL	.
.	.	.	.	.	.	8B-yJ	.
=58	=58	=58	=58	=58	=58	=58	=58
2D	et	1r	.	2F	pro-	2A	pro-
!	!	!	!	!	!	!	!
2E	pro-	.	.	[2G	-pter	2G	-pter
=59	=59	=59	=59	=59	=59	=59	=59
2.C	-pter	1r	.	2G]	.	2r	.
.	.	.	.	2A	no-	2c	no-
8BB-yL	.	.	.	.	.	.	.
8AAJ	.	.	.	.	.	.	.
!!LO:LB:g=original
=60	=60	=60	=60	=60	=60	=60	=60
4.GG	no-	1r	.	2B-y	-stram	2d	-stram
8AA	.	.	.	.	.	.	.
4BB-y	.	.	.	4G	sa-	4B-y	sa-
4AA	.	.	.	[4A	.	[4c	.
=61	=61	=61	=61	=61	=61	=61	=61
2FF	-stram	1r	.	8A]L	.	4c]	.
.	.	.	.	8GJ	.	.	.
.	.	.	.	2F	.	4A	.
4.C	sa-	.	.	.	.	2G	.
.	.	.	.	4E	.	.	.
8E	.	.	.	.	.	.	.
=62	=62	=62	=62	=62	=62	=62	=62
*	*	*	*	*lig	*	*	*
2D	-lu-	1r	.	2F	.	4F	.
.	.	.	.	.	.	2f	-lu-
2C	.	.	.	2G	.	.	.
*	*	*	*	*Xlig	*	*	*
.	.	.	.	.	.	4e	.
=63	=63	=63	=63	=63	=63	=63	=63
2FF	-tem	1r	.	2F	.	1f	-tem
2F	de-	.	.	2A	.	.	.
=64	=64	=64	=64	=64	=64	=64	=64
2.F	-scen-	1r	.	4.A	-lu-	2r	.
.	.	.	.	8B-y	.	.	.
.	.	.	.	4d	.	2f	de-
4E	.	.	.	[4c	.	.	.
=65	=65	=65	=65	=65	=65	=65	=65
2D	.	1r	.	4c]	.	2.f	-scen-
.	.	.	.	2B-y	.	.	.
2C	.	.	.	.	.	.	.
.	.	.	.	4A	.	4e	.
!!LO:LB:g=original
=66	=66	=66	=66	=66	=66	=66	=66
2BB-y	-dit	1r	.	2B-y	-tem	2d	-dit
*	*	*	*	*	*	*	*edit
4AA	.	.	.	2r	.	4c	de
[4BB-y	de	.	.	.	.	4B-y	.
=67	=67	=67	=67	=67	=67	=67	=67
4BB-]	.	1r	.	2r	.	4.d	ce-
8AAL	.	.	.	.	.	.	.
8GGJ	.	.	.	.	.	8c	.
4.FF	ce-	.	.	2F	de-	2A	-lis.
8GG	.	.	.	.	.	.	.
=68	=68	=68	=68	=68	=68	=68	=68
4AA	.	1r	.	2.F	-scen-	1r	.
2BB-y	.	.	.	.	.	.	.
4C	.	.	.	4E	.	.	.
=69	=69	=69	=69	=69	=69	=69	=69
4AA	.	1r	.	4F	.	1r	.
4BB-y	.	.	.	2G	.	.	.
4GG	.	.	.	.	.	.	.
[4C	.	.	.	8FL	.	.	.
.	.	.	.	8EJ	.	.	.
=70	=70	=70	=70	=70	=70	=70	=70
4C]	.	1r	.	2D	-dit	1r	.
4BB-y	.	.	.	.	.	.	.
4AA	.	.	.	2C	de	.	.
[4FF	.	.	.	.	.	.	.
=71	=71	=71	=71	=71	=71	=71	=71
4FF]	.	1r	.	4D	.	2r	.
4AA	.	.	.	2F	ce-	.	.
*	*	*	*	*	*	*	*Xedit
2GG	.	.	.	.	.	2B-y	Et
.	.	.	.	4E	.	.	.
!!LO:PB:g=original
=72	=72	=72	=72	=72	=72	=72	=72
4FF	-lis,	1r	.	2F	-lis.	2A	in-
*	*edit	*	*	*	*	*	*
4F	de	.	.	.	.	.	.
4.G	ce-	.	.	2r	.	[2B-y	-car-
8F	.	.	.	.	.	.	.
=73	=73	=73	=73	=73	=73	=73	=73
8EL	.	1r	.	1r	.	4B-]	.
8DJ	.	.	.	.	.	.	.
2C	.	.	.	.	.	2c	-na-
[4F	.	.	.	.	.	4A	.
=74	=74	=74	=74	=74	=74	=74	=74
4F]	.	1r	.	2B-y	Et	2G	-tus
4E	.	.	.	.	.	.	.
2F	-lis.	.	.	2A	in-	2F	est
=75	=75	=75	=75	=75	=75	=75	=75
4r	.	1r	.	2.B-y	-car-	2f	de
*	*Xedit	*	*	*	*	*	*
2BB-y	Et	.	.	.	.	.	.
.	.	.	.	.	.	4g	.
[4AA	in-	.	.	[4c	-na-	[4a	Spi-
=76	=76	=76	=76	=76	=76	=76	=76
4AA]	.	1r	.	4c]	.	4a]	.
4BB-y	.	.	.	4A	.	8gL	.
.	.	.	.	.	.	8fJ	.
2C	-car-	.	.	2G	-tus	2e	.
=77	=77	=77	=77	=77	=77	=77	=77
*	*	*	*	*	*	*lig	*
4AA	-na-	1r	.	2F	est	2f	-ri-
4BB-y	.	.	.	.	.	.	.
2GG	-tus	.	.	2E	de	2g	.
*	*	*	*	*	*	*Xlig	*
!!LO:LB:g=original
=78	=78	=78	=78	=78	=78	=78	=78
2FF	est	1r	.	2F	Spi-	2c	-tu
2r	.	.	.	2G	-ri-	4r	.
.	.	.	.	.	.	4B-y	San-
=79	=79	=79	=79	=79	=79	=79	=79
*	*	*	*	*	*	*lig	*
1r	.	1r	.	2C	-tu	2e-i	.
.	.	.	.	4r	.	2d	.
*	*	*	*	*	*	*Xlig	*
.	.	.	.	4BB-y	San-	.	.
=80	=80	=80	=80	=80	=80	=80	=80
1r	.	1r	.	2E-i	.	4c	.
.	.	.	.	.	.	2g	.
.	.	.	.	2D	.	.	.
.	.	.	.	.	.	4f	.
=81	=81	=81	=81	=81	=81	=81	=81
1r	.	1r	.	4C	.	4e-i	.
.	.	.	.	2.G	.	4.d	.
.	.	.	.	.	.	8cL	.
.	.	.	.	.	.	8B-y	.
.	.	.	.	.	.	8AJ	.
=82	=82	=82	=82	=82	=82	=82	=82
2r	.	1r	.	4E-i	.	4G	.
.	.	.	.	4C	.	2c	.
2GG	ex	.	.	2D	.	.	.
.	.	.	.	.	.	4Bni	.
=83	=83	=83	=83	=83	=83	=83	=83
4AA	Ma-	1r	.	1C	-cto	1c	-cto
2AA	-ri-	.	.	.	.	.	.
8GGL	.	.	.	.	.	.	.
8FFJ	.	.	.	.	.	.	.
!!LO:LB:g=original
=84	=84	=84	=84	=84	=84	=84	=84
4EE	.	1r	.	1r	.	2r	.
2FF	.	.	.	.	.	.	.
.	.	.	.	.	.	2G	ex
4EE	.	.	.	.	.	.	.
=85	=85	=85	=85	=85	=85	=85	=85
4FF	-a	1r	.	1r	.	4A	Ma-
2F	Vir-	.	.	.	.	2A	-ri-
8EL	.	.	.	.	.	8GL	.
8DJ	.	.	.	.	.	8FJ	.
=86	=86	=86	=86	=86	=86	=86	=86
4C	.	1r	.	2r	.	4E	.
4BB-y	.	.	.	.	.	2F	.
2C	.	.	.	2G	ex	.	.
.	.	.	.	.	.	4E	.
=87	=87	=87	=87	=87	=87	=87	=87
4.FF	-gi-	1r	.	4A	Ma-	2F	-a
.	.	.	.	2A	-ri-	.	.
8GG	.	.	.	.	.	.	.
8AAL	.	.	.	.	.	2r	.
8BB-yJ	.	.	.	.	.	.	.
[4C	.	.	.	8GL	.	.	.
.	.	.	.	8FJ	.	.	.
=88	=88	=88	=88	=88	=88	=88	=88
4C]	.	1r	.	4E	.	2A	Vir-
8BB-yL	.	.	.	2F	.	.	.
8AAJ	.	.	.	.	.	.	.
2GG	.	.	.	.	.	2B-y	.
.	.	.	.	4E	.	.	.
=89	=89	=89	=89	=89	=89	=89	=89
2FF	-ne,	1r	.	2F	-a	2A	.
2r	.	.	.	2r	.	4G	.
.	.	.	.	.	.	[4c	-gi-
!!LO:LB:g=original
=90	=90	=90	=90	=90	=90	=90	=90
*	*edit	*	*	*	*	*	*
2AA	Vir-	1r	.	1r	.	4c]	.
.	.	.	.	.	.	2A	.
2BB-y	.	.	.	.	.	.	.
.	.	.	.	.	.	4G	.
=91	=91	=91	=91	=91	=91	=91	=91
2AA	.	1r	.	1r	.	2A	-ne:
4GG	.	.	.	.	.	2r	.
[4C	-gi-	.	.	.	.	.	.
=92	=92	=92	=92	=92	=92	=92	=92
4C]	.	1r	.	2A	Vir-	2r	.
2AA	.	.	.	.	.	.	.
*	*	*	*	*	*	*lig	*
.	.	.	.	2B-y	.	2d	et
4GG	.	.	.	.	.	.	.
=93	=93	=93	=93	=93	=93	=93	=93
2AA	-ne:	1r	.	2A	.	2c	.
*	*	*	*	*	*	*Xlig	*
2r	.	.	.	4G	.	2e	ho-
.	.	.	.	[4c	-gi-	.	.
=94	=94	=94	=94	=94	=94	=94	=94
*	*Xedit	*	*	*	*	*	*
*	*	*	*	*	*	*lig	*
2AA	et	1r	.	4c]	.	2f	-mo
.	.	.	.	8B-yL	.	.	.
.	.	.	.	8AJ	.	.	.
2GG	.	.	.	8B-yL	.	2g	.
*	*	*	*	*	*	*Xlig	*
.	.	.	.	8A	.	.	.
.	.	.	.	8G	.	.	.
.	.	.	.	8FJ	.	.	.
=95	=95	=95	=95	=95	=95	=95	=95
2C	ho-	1r	.	2E	-ne:	4r	.
.	.	.	.	.	.	2c	fa-
2AA	.	.	.	2F	et	.	.
.	.	.	.	.	.	4A	.
!!LO:LB:g=original
=96	=96	=96	=96	=96	=96	=96	=96
*lig	*	*	*	*	*	*	*
2GG	-mo	1r	.	1G	ho-	8B-yL	.
.	.	.	.	.	.	8A	.
.	.	.	.	.	.	8G	.
.	.	.	.	.	.	8FJ	.
2C	.	.	.	.	.	2E	.
*Xlig	*	*	*	*	*	*	*
=97	=97	=97	=97	=97	=97	=97	=97
*	*	*	*	*	*	*lig	*
4.FF	fa-	1r	.	4.F	-mo	1F	-ctus
8GG	.	.	.	8E	.	.	.
4AA	.	.	.	4C	fa-	.	.
[4BB-y	.	.	.	[4D	.	.	.
=98	=98	=98	=98	=98	=98	=98	=98
8BB-]L	.	1r	.	8D]L	.	1G	.
*	*	*	*	*	*	*Xlig	*
8AA	.	.	.	8CJ	.	.	.
8GG	.	.	.	4D	-ctus	.	.
8FFJ	.	.	.	.	.	.	.
2EE	.	.	.	2E	est.	.	.
=99	=99	=99	=99	=99	=99	=99	=99
2FF	-ctus	1r	.	4r	.	2F	est.
.	.	.	.	4A	Cru-	.	.
2GG	.	.	.	4G	.	2r	.
.	.	.	.	4B-y	.	.	.
=100	=100	=100	=100	=100	=100	=100	=100
2FF	est.	1r	.	4A	.	4r	.
.	.	.	.	4F	-ci-	4A	Cru-
2r	.	.	.	2G	-fi-	4G	.
.	.	.	.	.	.	4B-y	.
=101	=101	=101	=101	=101	=101	=101	=101
1r	.	1r	.	2F	-xus	4A	.
.	.	.	.	.	.	4F	-ci-
.	.	.	.	2B-y	e-	2G	-fi-
!!LO:PB:g=original
=102	=102	=102	=102	=102	=102	=102	=102
1r	.	1r	.	4c	.	2F	-xus
.	.	.	.	4.d	.	.	.
.	.	.	.	.	.	2r	.
.	.	.	.	8cL	.	.	.
.	.	.	.	8B-y	.	.	.
.	.	.	.	8AJ	.	.	.
=103	=103	=103	=103	=103	=103	=103	=103
1r	.	1r	.	2G	.	2B-y	e-
.	.	.	.	4A	.	4c	.
.	.	.	.	[4B-y	.	[4d	.
=104	=104	=104	=104	=104	=104	=104	=104
2r	.	1r	.	8B-]L	.	8d]L	.
.	.	.	.	8A	.	8c	.
.	.	.	.	8G	.	8B-y	.
.	.	.	.	8FJ	.	8AJ	.
2C	Cru-	.	.	2E	-ti-	2G	-ti-
=105	=105	=105	=105	=105	=105	=105	=105
4D	.	1r	.	2F	-am	2F	-am
4F	.	.	.	.	.	.	.
4E	.	.	.	2r	.	2c	pro
4C	-ci-	.	.	.	.	.	.
=106	=106	=106	=106	=106	=106	=106	=106
2D	-fi-	1r	.	2r	.	2f	no-
2C	-xus	.	.	2C	pro	4e	.
.	.	.	.	.	.	4c	.
=107	=107	=107	=107	=107	=107	=107	=107
4r	.	1r	.	2F	no-	8dL	.
.	.	.	.	.	.	8c	.
2BB-y	e-	.	.	.	.	8B-y	.
.	.	.	.	.	.	8AJ	.
.	.	.	.	4G	.	4G	.
4C	-ti-	.	.	4E	.	[4c	.
!!LO:LB:g=original
=108	=108	=108	=108	=108	=108	=108	=108
2GG	-am	1r	.	2D	.	4c]	.
.	.	.	.	.	.	4Bni	.
4G	pro	.	.	2C	-bis:	2c	-bis:
4E	no-	.	.	.	.	.	.
=109	=109	=109	=109	=109	=109	=109	=109
4F	-bis:	1r	.	4r	.	4A	sub
2D	sub	.	.	2F	sub	2B-y	Pon-
4C	.	.	.	[4E	Pon-	[4A	.
=110	=110	=110	=110	=110	=110	=110	=110
2BB-y	Pon-	1r	.	4E]	.	4A]	.
.	.	.	.	4D	.	4G	-ti-
2AA	.	.	.	4E	.	2A	-o
.	.	.	.	[4F	.	.	.
=111	=111	=111	=111	=111	=111	=111	=111
2GG	-ti-	1r	.	4F]	.	2B-y	Pi-
.	.	.	.	4E	-ti-	.	.
2FF	-o	.	.	2F	-o	4A	.
.	.	.	.	.	.	4F	.
=112	=112	=112	=112	=112	=112	=112	=112
2BB-y	Pi-	1r	.	2r	.	2G	-la-
4AA	.	.	.	2A	Pi-	4F	.
4FF	.	.	.	.	.	[4F	.
=113	=113	=113	=113	=113	=113	=113	=113
2GG	-la-	1r	.	2B-y	-la-	4F]	.
.	.	.	.	.	.	4E	.
4FF	-to	.	.	4A	.	4F	-to
4F	pas-	.	.	4F	.	4A	pas-
=114	=114	=114	=114	=114	=114	=114	=114
4G	.	1r	.	2E	-to	4G	.
4E	.	.	.	.	.	2c	.
2D	.	.	.	2r	.	.	.
.	.	.	.	.	.	4Bni	.
!!LO:LB:g=original
=115	=115	=115	=115	=115	=115	=115	=115
4C	.	1r	.	4r	.	4c	.
4BB-y	.	.	.	4B-y	pas-	4d	.
4AA	.	.	.	4c	.	4c	.
4FF	.	.	.	4A	.	[4f	.
=116	=116	=116	=116	=116	=116	=116	=116
2C	.	1r	.	2G	.	4f]	.
.	.	.	.	.	.	4e	.
2FF	.	.	.	2A	.	2f	.
=117	=117	=117	=117	=117	=117	=117	=117
4EE	.	1r	.	4G	.	4g	.
4FF	.	.	.	4F	.	2a	.
2F	.	.	.	4.A	.	.	.
.	.	.	.	.	.	8gL	.
.	.	.	.	8B-y	.	8fJ	.
=118	=118	=118	=118	=118	=118	=118	=118
2C	-sus,	1r	.	2c	-sus,	2e	-sus,
4r	.	.	.	4r	.	4r	.
4C	et	.	.	4c	et	4e	et
=119	=119	=119	=119	=119	=119	=119	=119
4D	.	1r	.	4A	.	4f	.
2BB-y	se-	.	.	4B-y	.	2d	se-
.	.	.	.	2G	se-	.	.
4C	.	.	.	.	.	4e	.
=120	=120	=120	=120	=120	=120	=120	=120
4AA	.	1r	.	4A	.	4c	.
4BB-y	.	.	.	4F	.	4d	.
2GG	.	.	.	4G	.	2B-y	.
.	.	.	.	[4E	.	.	.
!!LO:LB:g=original
=121	=121	=121	=121	=121	=121	=121	=121
4AA	.	1r	.	4E]	.	4c	.
4FF	.	.	.	4F	.	4A	.
4BB-y	.	.	.	4D	.	4B-y	.
[4C	-pul-	.	.	4E	.	[4G	-pul-
=122	=122	=122	=122	=122	=122	=122	=122
4C]	.	1r	.	2C	-pul-	4G]	.
4AA	.	.	.	.	.	4A	.
4GG	.	.	.	4D	.	4B-y	.
4C	.	.	.	4E	.	4c	.
=123	=123	=123	=123	=123	=123	=123	=123
2FF	.	1r	.	4F	.	2A	.
.	.	.	.	2D	.	.	.
4BB-y	.	.	.	.	.	4B-y	.
4AA	.	.	.	4E	.	4c	.
=124	=124	=124	=124	=124	=124	=124	=124
4FF	.	1r	.	4F	.	4d	.
4BB-y	.	.	.	4G	.	2B-y	.
4GG	.	.	.	2E	.	.	.
4C	.	.	.	.	.	4c	.
=125	=125	=125	=125	=125	=125	=125	=125
4FF	-tus,	1r	.	4F	.	4d	.
4EE	.	.	.	4G	.	4e	.
2FF	.	.	.	4A	.	2c	.
.	.	.	.	[4F	.	.	.
=126	=126	=126	=126	=126	=126	=126	=126
*	*edit	*	*	*	*	*	*
4A	se-	1r	.	4F]	.	4d	.
4G	-pul-	.	.	4G	.	4e	.
2F	-tus	.	.	4A	.	4.f	-tus
.	.	.	.	4B-y	-tus	.	.
.	.	.	.	.	.	8g	.
=127	=127	=127	=127	=127	=127	=127	=127
*	*Xedit	*	*	*	*	*	*
1E;	est.	1r	.	1c;	est.	1e;	est.
!!LO:LB:g=original
=128||	=128||	=128||	=128||	=128||	=128||	=128||	=128||
[1FF	Et	[1F	Et	[1A	Et	[1c	Et
=129	=129	=129	=129	=129	=129	=129	=129
1FF]	.	1F]	.	1A]	.	1c_	.
=130	=130	=130	=130	=130	=130	=130	=130
2.F	re-	1A	re-	2A	re-	1c]	.
.	.	.	.	2c	.	.	.
4A	.	.	.	.	.	.	.
=131	=131	=131	=131	=131	=131	=131	=131
2G	-sur-	2B-y	-sur-	2B-y	.	2d	re-
2E	.	[2c	-re-	2G	-sur-	2c	-sur-
=132	=132	=132	=132	=132	=132	=132	=132
1D	-re-	2c]	.	1F	-re-	1f	-re-
.	.	2Bni	.	.	.	.	.
=133	=133	=133	=133	=133	=133	=133	=133
1C	-xit	[1c	-xit,	1G	-xit	1e	-xit
=134	=134	=134	=134	=134	=134	=134	=134
2C	ter-	1c]	.	2G	ter-	2e	ter-
2C	-ti-	.	.	2G	-ti-	2e	-ti-
=135	=135	=135	=135	=135	=135	=135	=135
*lig	*	*	*	*	*	*	*
2AA	-a	1r	.	2A	-a	2e	-a
2FF	di-	.	.	2A	di-	4f	di-
.	.	.	.	.	.	[4f	.
!!LO:PB:g=original
=136	=136	=136	=136	=136	=136	=136	=136
1GG	-e,	1r	.	2B-y	-e	8f]L	.
*Xlig	*	*	*	*	*	*	*
.	.	.	.	.	.	8e	.
.	.	.	.	.	.	8d	.
.	.	.	.	.	.	8cJ	.
.	.	.	.	2B-y	se-	2d	.
=137	=137	=137	=137	=137	=137	=137	=137
*	*	*	*edit	*	*	*	*
*	*	*lig	*	*	*	*	*
2AA	se-	[1c	se-	2.c	-cun-	1c	-e,
2AA	-cun-	.	.	.	.	.	.
.	.	.	.	[4A	-dum	.	.
=138	=138	=138	=138	=138	=138	=138	=138
2AA	-dum	2c]	.	4A]	.	1r	.
.	.	.	.	2F	Scri-	.	.
4BB-y	scri-	[2B-y	-cun-	.	.	.	.
[4BB-y	-ptu-	.	.	[4G	-ptu-	.	.
=139	=139	=139	=139	=139	=139	=139	=139
8BB-L]	.	1B-]	.	8GL]	.	2g	se-
8AA	.	.	.	8F	.	.	.
8GG	.	.	.	8E	.	.	.
8FFJ	.	.	.	8DJ	.	.	.
2GG	.	.	.	2E	.	2g	-cun-
=140	=140	=140	=140	=140	=140	=140	=140
1FF	-ras.	1A	-dum	1F	-ras.	2.a	-dum
.	.	.	.	.	.	4g	.
=141	=141	=141	=141	=141	=141	=141	=141
2C	.	2G	Scri-	1r	.	2e	Scri-
4r	.	4A	.	.	.	4f	.
[4E-X	Et	[4B-y	-ptu-	.	.	[4g	-ptu-
!!LO:LB:g=original
=142	=142	=142	=142	=142	=142	=142	=142
4E-]	.	4B-]	.	2r	.	4g]	.
4F	.	4A	.	.	.	2f	.
2C	.	2G	.	2c	Et	.	.
.	.	.	.	.	.	4e	.
=143	=143	=143	=143	=143	=143	=143	=143
4.FF	a-	[1F	-ras.	2.c	a-	1f	-ras.
8GG	.	.	.	.	.	.	.
4AA	.	.	.	.	.	.	.
[4BB-y	-scen-	.	.	[4d	-scen-	.	.
=144	=144	=144	=144	=144	=144	=144	=144
4BB-]	.	1F_	.	4d]	.	1r	.
8AAL	.	.	.	8cL	.	.	.
8GGJ	.	.	.	8B-yJ	.	.	.
4FF	-dit	.	.	4A	.	.	.
[4BB-y	in	.	.	[4d	.	.	.
=145	=145	=145	=145	=145	=145	=145	=145
4BB-]	.	1F]	.	4d]	.	2f	Et
4C	.	.	.	2c	.	.	.
2D	ce-	.	.	.	.	2f	a-
.	.	.	.	4Bni	.	.	.
=146	=146	=146	=146	=146	=146	=146	=146
2C	-lum:	[1G	Et	2c	-dit	2.e	-scen-
2r	.	.	.	[2C	in	.	.
.	.	.	.	.	.	8dL	.
.	.	.	.	.	.	8cJ	.
=147	=147	=147	=147	=147	=147	=147	=147
1r	.	1G]	.	4C]	.	4e	.
*	*	*	*	*	*	*lig	*
.	.	.	.	4BB-y	.	2d	.
.	.	.	.	2C	ce-	.	.
.	.	.	.	.	.	[4c	.
!!LO:LB:g=original
=148	=148	=148	=148	=148	=148	=148	=148
*	*	*lig	*	*	*	*	*
2GG	se-	[1G	a-	2D	.	4c]	.
*	*	*	*	*	*	*Xlig	*
.	.	.	.	.	.	4Bni	.
2C	-det	.	.	2C	.	4c	-dit
.	.	.	.	.	.	[4e	in
=149	=149	=149	=149	=149	=149	=149	=149
2C	ad	1G]	.	1E	.	8e]L	.
.	.	.	.	.	.	8d	.
.	.	.	.	.	.	8c	.
.	.	.	.	.	.	8BniJ	.
2C	dex-	.	.	.	.	2c	ce-
=150	=150	=150	=150	=150	=150	=150	=150
2.F	-te-	1A	-scen-	1D	-lum:	2d	-lum:
.	.	.	.	.	.	2f	se-
4G	.	.	.	.	.	.	.
=151	=151	=151	=151	=151	=151	=151	=151
1A	.	1F	-dit	1r	.	2f	-det
*	*	*Xlig	*	*	*	*	*
.	.	.	.	.	.	2c	ad
=152	=152	=152	=152	=152	=152	=152	=152
*	*	*lig	*	*	*	*	*
2F	.	1F	in	1r	.	2c	dex-
[2D	.	.	.	.	.	[2d	-te-
=153	=153	=153	=153	=153	=153	=153	=153
4D]	.	1D	ce-	1d	ad	4d]	.
4E	.	.	.	.	.	8cL	.
.	.	.	.	.	.	8B-yJ	.
2F	.	.	.	.	.	2A	.
!!LO:LB:g=original
=154	=154	=154	=154	=154	=154	=154	=154
2G	.	1E	.	2B-y	dex-	2G	-ram
*	*	*Xlig	*	*	*	*	*
2C	-ram	.	.	2A	.	[2c	Pa-
=155	=155	=155	=155	=155	=155	=155	=155
*	*	*lig	*	*	*	*	*
1GG	Pa-	1D	-lum.	1G	-te-	2c]	.
*	*	*Xlig	*	*	*	*	*
.	.	.	.	.	.	2Bni	.
=156	=156	=156	=156	=156	=156	=156	=156
[1AA	-tris.	[1C	.	2E	-ram	1c	-tris.
.	.	.	.	4C	.	.	.
.	.	.	.	[4c	Pa-	.	.
=157	=157	=157	=157	=157	=157	=157	=157
2AA]	.	1C]	.	8c]L	.	1r	.
.	.	.	.	8B-y	.	.	.
.	.	.	.	8A	.	.	.
.	.	.	.	8GJ	.	.	.
2AA	Et	.	.	2F	.	.	.
=158	=158	=158	=158	=158	=158	=158	=158
*	*	*	*Xedit	*	*	*	*
2GG	i-	2D	Et	1G	-tris.	2B-y	Et
[2C	-te-	[2E	i-	.	.	2c	i-
=159	=159	=159	=159	=159	=159	=159	=159
2C]	.	1E]	.	2r	.	2G	-te-
2C	-tum	.	.	4r	.	2A	.
.	.	.	.	4C	Et	.	.
!!LO:PB:g=original
=160	=160	=160	=160	=160	=160	=160	=160
4.BB-y	ven-	[1F	-te-	4.D	.	4.B-y	-rum
8C	.	.	.	8E	.	8A	.
4.D	-tu-	.	.	2F	i-	4F	.
.	.	.	.	.	.	[4A	ven-
8E	.	.	.	.	.	.	.
=161	=161	=161	=161	=161	=161	=161	=161
2F	-rus	2F]	.	2D	-te-	4A]	.
.	.	.	.	.	.	4B-y	.
2C	est	[2G	-rum	2E	.	2c	-tu-
=162	=162	=162	=162	=162	=162	=162	=162
4r	.	2G]	.	4D	-rum	4d	.
4C	cum	.	.	4C	.	4e	.
4D	.	4F	.	4r	.	4f	.
4C	.	4E	.	[4c	ven-	[4g	.
=163	=163	=163	=163	=163	=163	=163	=163
*	*	*lig	*	*	*	*	*
2D	glo-	2F	ven-	4c]	.	4g]	.
.	.	.	.	4B-y	.	2f	.
2C	-ri-	2G	-tu-	2c	.	.	.
.	.	.	.	.	.	4e	-rus
=164	=164	=164	=164	=164	=164	=164	=164
1D	-a,	1F	-rus	1A	-tu-	2.f	est
*	*	*Xlig	*	*	*	*	*
.	.	.	.	.	.	4e	.
=165	=165	=165	=165	=165	=165	=165	=165
2E	ju-	2G	est	2G	.	2c	cum
2D	.	2F	.	2A	.	2d	glo-
!!LO:LB:g=original
=166	=166	=166	=166	=166	=166	=166	=166
1E	.	1G	.	2G	-rus	4c	.
.	.	.	.	.	.	4A	.
.	.	.	.	2C	est	2G	-ri-
=167	=167	=167	=167	=167	=167	=167	=167
2F	-di-	2A	cum	2r	.	2F	-a,
2D	.	[2B-y	glo-	2D	cum	4r	.
.	.	.	.	.	.	4f	ju-
=168	=168	=168	=168	=168	=168	=168	=168
1C	-ca-	2B-]	.	1E	glo-	8gL	.
.	.	.	.	.	.	8f	.
.	.	.	.	.	.	8e	.
.	.	.	.	.	.	8dJ	.
.	.	2A	-ri-	.	.	2e	-di-
=169	=169	=169	=169	=169	=169	=169	=169
1BB-y	-re	1B-y	-a,	2.F	-ri-	1d	-ca-
.	.	.	.	4G	-a,	.	.
=170	=170	=170	=170	=170	=170	=170	=170
2AA	vi-	2c	ju-	4A	ju-	2c	.
.	.	.	.	4B-y	-di-	.	.
2FF	-vos	2A	-di-	[2c	-ca-	[2f	.
=171	=171	=171	=171	=171	=171	=171	=171
2C	et	1G	-ca-	2c]	.	2f]	.
2C	mor-	.	.	2c	-re	2e	.
!!LO:LB:g=original
=172	=172	=172	=172	=172	=172	=172	=172
4D	.	1F	-re...	2A	vi-	2f	-re
2D	-tu-	.	.	.	.	.	.
.	.	.	.	2F	-vos	2r	.
8CL	.	.	.	.	.	.	.
8BB-yJ	.	.	.	.	.	.	.
=173	=173	=173	=173	=173	=173	=173	=173
1AA	-os:	1r	.	2c	et	2e	vi-
.	.	.	.	2c	mor-	2c	-vos
=174	=174	=174	=174	=174	=174	=174	=174
1r	.	1r	.	4d	.	2f	et
.	.	.	.	2d	-tu-	.	.
.	.	.	.	.	.	4.f	mor-
.	.	.	.	8cL	.	.	.
.	.	.	.	8B-yJ	.	8g	-tu-
=175	=175	=175	=175	=175	=175	=175	=175
[1AA	cu-	1r	.	1A	-os:	2.a	-os:
.	.	.	.	.	.	4g	.
=176	=176	=176	=176	=176	=176	=176	=176
2AA]	.	1r	.	2c	cu-	2e	cu-
2AA	-jus	.	.	2c	-jus	2f	-jus
=177	=177	=177	=177	=177	=177	=177	=177
2.GG	re-	1r	.	4.B-y	re-	2g	re-
.	.	.	.	8A	.	.	.
.	.	.	.	4G	.	4e	.
4AA	.	.	.	4F	.	4f	.
!!LO:LB:g=original
=178	=178	=178	=178	=178	=178	=178	=178
4BB-y	.	1r	.	2G	.	4d	.
2C	.	.	.	.	.	2e	.
.	.	.	.	4E	.	.	.
4BB-y	.	.	.	4F	.	[4d	.
=179	=179	=179	=179	=179	=179	=179	=179
4AA	.	1r	.	4C	.	4d]	.
4C	.	.	.	4E	.	2c	.
2GG	-gni	.	.	2D	-gni	.	.
.	.	.	.	.	.	4Bni	.
=180	=180	=180	=180	=180	=180	=180	=180
4AA	non	1r	.	4.C	non	2c	-gni
4.FF	e-	.	.	.	.	.	.
.	.	.	.	8BB-y	.	.	.
.	.	.	.	4C	.	4r	.
8EE	.	.	.	.	.	.	.
4FF	.	.	.	[4D	e-	4A	non
=181	=181	=181	=181	=181	=181	=181	=181
4.GG	.	1r	.	8D]L	.	4G	.
.	.	.	.	8CJ	.	.	.
.	.	.	.	4D	.	2B-y	e-
8FF	.	.	.	.	.	.	.
4GG	.	.	.	4.E	.	.	.
[4AA	.	.	.	.	.	4A	.
.	.	.	.	8D	.	.	.
=182	=182	=182	=182	=182	=182	=182	=182
8AA]L	.	1r	.	4E	.	2c	-rit
8GGJ	.	.	.	.	.	.	.
4AA	.	.	.	4.F	-rit	.	.
4.BB-y	-rit	.	.	.	.	4B-y	.
.	.	.	.	8E	.	.	.
.	.	.	.	4F	.	[4d	fi-
8AA	.	.	.	.	.	.	.
=183	=183	=183	=183	=183	=183	=183	=183
4BB-y	.	1r	.	4.G	fi-	4d]	.
2.C	fi-	.	.	.	.	4c	.
.	.	.	.	8F	.	.	.
.	.	.	.	4G	.	2e	.
.	.	.	.	[4A	.	.	.
!!LO:PB:g=original
=184	=184	=184	=184	=184	=184	=184	=184
4AA	.	1r	.	4A]	.	4f	.
4BB-y	.	.	.	2F	.	4d	.
2GG	.	.	.	.	.	8eL	.
.	.	.	.	.	.	8d	.
.	.	.	.	4E	.	8c	.
.	.	.	.	.	.	8B-yJ	.
=185	=185	=185	=185	=185	=185	=185	=185
1FF	-nis.	1r	.	4.F	-nis.	1A	-nis.
.	.	.	.	8G	.	.	.
.	.	.	.	4A	.	.	.
.	.	.	.	4B-y	.	.	.
=186	=186	=186	=186	=186	=186	=186	=186
2AA	Et	[1F	Qui	2c	Et	2r	.
[2BB-y	in	.	.	[2B-y	in	[2d	Qui
=187	=187	=187	=187	=187	=187	=187	=187
4BB-]	.	1F]	.	2B-]	.	2d]	.
4C	.	.	.	.	.	.	.
2D	Spi-	.	.	2A	Spi-	2d	cum
=188	=188	=188	=188	=188	=188	=188	=188
4.GG	-ri-	[1G	cum	4.G	-ri-	4.B-y	Pa-
8AA	.	.	.	8F	.	8c	.
4BB-y	-tum	.	.	4D	-tum	4d	.
[4C	San-	.	.	4C	.	4e-i	.
=189	=189	=189	=189	=189	=189	=189	=189
4C]	.	1G]	.	2D	san-	2d	-tre
4BBnj	.	.	.	.	.	.	.
*	*	*	*	*	*	*lig	*
2C	-ctum,	.	.	2E	-ctum,	[2c	et
!!LO:LB:g=original
=190	=190	=190	=190	=190	=190	=190	=190
*lig	*	*lig	*	*	*	*	*
[1FF	Domi-	[1A	Pa-	2.F	Do-	2c]	.
.	.	.	.	.	.	[2f	.
.	.	.	.	4D	.	.	.
=191	=191	=191	=191	=191	=191	=191	=191
1FF]	.	1A]	.	2C	.	2f]	.
*	*	*	*	*	*	*Xlig	*
.	.	.	.	2D	-mi-	2f	Fi-
=192	=192	=192	=192	=192	=192	=192	=192
1EE-X	-num,	1B-y	-tre	2.E-X	-num,	2g	-li-
*Xlig	*	*	*	*	*	*	*
.	.	.	.	.	.	2g	-o
.	.	.	.	4D	et	.	.
=193	=193	=193	=193	=193	=193	=193	=193
*lig	*	*	*	*lig	*	*	*
1FF	et	1A	et	2C	vi-	4.f	si-
*	*	*Xlig	*	*	*	*	*
.	.	.	.	.	.	8e	.
.	.	.	.	2AA	.	4c	.
*	*	*	*	*Xlig	*	*	*
.	.	.	.	.	.	[4d	.
=194	=194	=194	=194	=194	=194	=194	=194
*	*	*lig	*	*	*	*	*
1GG	vi-	1G	Fi-	2.BB-y	-vi-	8d]L	.
.	.	.	.	.	.	8c	.
.	.	.	.	.	.	8B-y	.
.	.	.	.	.	.	8AJ	.
.	.	.	.	.	.	2B-y	.
.	.	.	.	4C	.	.	.
=195	=195	=195	=195	=195	=195	=195	=195
1DD	-vi-	[1A	-li-	2.D	-fi-	1A	-mul
*Xlig	*	*	*	*	*	*	*
.	.	.	.	4E	.	.	.
!!LO:LB:g=original
=196	=196	=196	=196	=196	=196	=196	=196
*lig	*	*	*	*lig	*	*	*
1D	-fi-	1A]	.	1F	-can-	2r	.
*	*	*Xlig	*	*	*	*	*
.	.	.	.	.	.	2f	ad-
=197	=197	=197	=197	=197	=197	=197	=197
*col	*	*lig	*	*	*	*	*
2.C	-can-	1c	-o	[1G	.	2.e	-o-
*Xlig	*	*	*	*	*	*	*
8BB-yL	.	.	.	.	.	4f	.
8AAJ	.	.	.	.	.	.	.
*Xcol	*	*	*	*	*	*	*
=198	=198	=198	=198	=198	=198	=198	=198
1GG	-tem...	[1B-y	si-	1G_	.	2g	.
.	.	.	.	.	.	4a	.
.	.	.	.	.	.	[4b-y	-ra-
=199	=199	=199	=199	=199	=199	=199	=199
1r	.	1B-]	.	1G]	.	8b-]L	.
*	*	*Xlig	*	*Xlig	*	*	*
.	.	.	.	.	.	8a	.
.	.	.	.	.	.	8g	.
.	.	.	.	.	.	8fJ	.
.	.	.	.	.	.	2g	.
=200	=200	=200	=200	=200	=200	=200	=200
*	*	*lig	*	*	*	*	*
4.D	pro-	[1A	-mul	1D	-tem:	2.a	-tur,
8E	.	.	.	.	.	.	.
4.F	-ce-	.	.	.	.	.	.
.	.	.	.	.	.	4g	et
8E	.	.	.	.	.	.	.
=201	=201	=201	=201	=201	=201	=201	=201
4C	.	1A]	.	2r	.	4e	con-
4.D	.	.	.	.	.	4.f	.
.	.	.	.	2d	qui	.	.
8C	.	.	.	.	.	8e	.
4D	.	.	.	.	.	4f	.
!!LO:LB:g=original
=202	=202	=202	=202	=202	=202	=202	=202
4.E-X	.	[1G	ad-	2B-y	ex	2.g	-glo-
8D	.	.	.	.	.	.	.
4C	.	.	.	2c	Pa-	.	.
8BB-yL	.	.	.	.	.	4a	.
8AAJ	.	.	.	.	.	.	.
=203	=203	=203	=203	=203	=203	=203	=203
1GG	-dit.	1G]	.	2d	-tre	2.b-y	-ri-
*	*	*Xlig	*	*	*	*	*
.	.	.	.	2B-y	Fi-	.	.
.	.	.	.	.	.	4cc	-fi-
=204	=204	=204	=204	=204	=204	=204	=204
*	*	*lig	*	*	*	*	*
2r	.	[1F	-o-	2c	-li-	2.a	-ca-
[2D	Qui	.	.	[2A	-o-	.	.
.	.	.	.	.	.	4g	.
=205	=205	=205	=205	=205	=205	=205	=205
4D]	.	1F]	.	4A]	.	4f	.
8CL	.	.	.	4B-y	-que	8eL	.
8BB-yJ	.	.	.	.	.	8dJ	.
4AA	.	.	.	[2c	pro-	4.c	.
4FF	cum	.	.	.	.	.	.
.	.	.	.	.	.	8d	.
=206	=206	=206	=206	=206	=206	=206	=206
2C	.	1G	-ra-	4c]	.	4e	.
*	*	*Xlig	*	*	*	*	*
.	.	.	.	4B-y	.	2f	.
2C	Pa-	.	.	2G	.	.	.
.	.	.	.	.	.	4e	.
=207	=207	=207	=207	=207	=207	=207	=207
1FF	-tre	[1A	-tur...	2.F	-ce-	1f	-tur:
.	.	.	.	4E	.	.	.
!!LO:PB:g=original
=208	=208	=208	=208	=208	=208	=208	=208
1r	.	1A_	.	4C	.	1r	.
.	.	.	.	2D	.	.	.
.	.	.	.	8CL	.	.	.
.	.	.	.	8BB-yJ	.	.	.
=209	=209	=209	=209	=209	=209	=209	=209
4.AA	et	1A_	.	2AA	-dit.	4.c	qui
8BB-y	.	.	.	.	.	8d	.
4C	.	.	.	2r	.	4e	lo-
[4D	Fi-	.	.	.	.	[4f	-cu-
=210	=210	=210	=210	=210	=210	=210	=210
4D]	.	1A]	.	2r	.	4f]	.
4C	.	.	.	.	.	4e	-tus
4.AA	.	.	.	4.A	Qui	2c	est
8GG	.	.	.	8B-y	.	.	.
=211	=211	=211	=211	=211	=211	=211	=211
4AA	.	1r	.	4c	lo-	1r	.
2BB-y	-li-	.	.	2d	-cu-	.	.
8AAL	.	.	.	8cL	-tus	.	.
8GGJ	.	.	.	8B-yJ	.	.	.
=212	=212	=212	=212	=212	=212	=212	=212
2FF	-o	1r	.	2A	est	2.c	per
2r	.	.	.	4A	per	.	.
.	.	.	.	[4B-y	Pro-	[4d	Pro-
=213	=213	=213	=213	=213	=213	=213	=213
1r	.	1r	.	4B-]	.	8d]L	.
.	.	.	.	.	.	8cJ	.
.	.	.	.	2A	-phe-	4c	-phe-
.	.	.	.	.	.	2B-y	.
.	.	.	.	4G	.	.	.
!!LO:LB:g=original
=214	=214	=214	=214	=214	=214	=214	=214
*	*	*lig	*	*	*	*	*
4.FF	si-	1A	Et	4.A	-tas.	2A	-tas.
8GG	.	.	.	8B-y	.	.	.
8AAL	.	.	.	2c	.	2r	.
8BB-yJ	.	.	.	.	.	.	.
[4C	-mul	.	.	.	.	.	.
=215	=215	=215	=215	=215	=215	=215	=215
4C]	.	1G	unam	4C	Et	1r	.
*	*	*Xlig	*	*	*	*	*
2BB-y	ad-	.	.	2D	u-	.	.
[4C	-o-	.	.	[4E	-nam	.	.
=216	=216	=216	=216	=216	=216	=216	=216
*	*	*lig	*	*	*	*	*
8C]L	.	1A	san-	4E]	.	1r	.
8BB-y	.	.	.	.	.	.	.
8AA	.	.	.	2F	san-	.	.
8GGJ	.	.	.	.	.	.	.
2FF	.	.	.	.	.	.	.
.	.	.	.	4F	-ctam	.	.
=217	=217	=217	=217	=217	=217	=217	=217
2GG	-ra-	1B-y	-ctam	2D	ca-	2g	Ca-
*	*	*Xlig	*	*	*	*	*
2EE-i	.	.	.	2E-X	-tho-	4g	-tho-
.	.	.	.	.	.	4g	-li-
=218	=218	=218	=218	=218	=218	=218	=218
1FF	-tur,	1A	ca-	4C	-li-	2.a	-cam
.	.	.	.	2c	-cam	.	.
.	.	.	.	4A	.	4g	.
=219	=219	=219	=219	=219	=219	=219	=219
1r	.	1G	-tho-	8B-yL	et	4.e	et
.	.	.	.	8A	.	.	.
.	.	.	.	8G	.	.	.
.	.	.	.	8FJ	.	8f	.
.	.	.	.	4.E	a-	2g	.
.	.	.	.	8D	.	.	.
!!LO:LB:g=original
=220	=220	=220	=220	=220	=220	=220	=220
*	*	*lig	*	*	*	*	*
2FF	con-	1F	-li-	1F	-po-	2c	a-
[2BB-y	-glo-	.	.	.	.	[2d	-po-
=221	=221	=221	=221	=221	=221	=221	=221
2BB-]	.	1G	-cam	2B-y	-sto-	4d]	.
.	.	.	.	.	.	4d	-sto-
2C	-ri-	.	.	2G	-li-	2e	-li-
=222	=222	=222	=222	=222	=222	=222	=222
2AA	-fi-	1A	et	1c	-cam	2c	-cam
*lig	*	*Xlig	*	*	*	*	*
[2FF	-ca-	.	.	.	.	[2f	Ec-
=223	=223	=223	=223	=223	=223	=223	=223
2FF]	.	1F	a-	2A	Ec-	4f]	.
.	.	.	.	.	.	4e	.
[2BB-y	.	.	.	2F	-cle-	[2d	.
=224	=224	=224	=224	=224	=224	=224	=224
*	*	*lig	*	*	*	*	*
2BB-]	.	2G	-po-	2B-y	-si-	4d]	.
*Xlig	*	*	*	*	*	*	*
.	.	.	.	.	.	4c	.
2C	.	2E	-sto-	[2G	-am.	[2c	-cle-
=225	=225	=225	=225	=225	=225	=225	=225
1GG	-tur.	1D	-licam	1G]	.	2c]	.
.	.	.	.	.	.	2Bni	-si-
!!LO:LB:g=original
=226	=226	=226	=226	=226	=226	=226	=226
1r	.	[1C	Eccle-	2G	Con-	1c	-am.
.	.	.	.	4G	-fi-	.	.
.	.	.	.	[4A	-te-	.	.
=227	=227	=227	=227	=227	=227	=227	=227
1r	.	_1C_	.	4A]	.	2r	.
.	.	.	.	4G	.	.	.
.	.	.	.	2E	-or	2g	Con-
=228	=228	=228	=228	=228	=228	=228	=228
1r	.	_1C_	-siam.	2r	.	4g	-fi-
.	.	.	.	.	.	2a	-te-
.	.	.	.	4r	.	.	.
.	.	.	.	4G	u-	4g	.
=229	=229	=229	=229	=229	=229	=229	=229
1r	.	1C]	.	4G	-num	2e	-or
*	*	*Xlig	*	*	*	*	*
.	.	.	.	4G	ba-	.	.
.	.	.	.	2E	-pti-	4r	.
.	.	.	.	.	.	4g	u-
=230	=230	=230	=230	=230	=230	=230	=230
4r	.	1r	.	2C	-sma	4g	-num
4C	U-	.	.	.	.	4g	ba-
4C	-nam	.	.	4r	.	2e	-pti-
4C	ba-	.	.	[4c	in	.	.
=231	=231	=231	=231	=231	=231	=231	=231
2AA	-pti-	1r	.	4c]	.	2c	-sma
.	.	.	.	4c	re-	.	.
2FF	-sma	.	.	4A	-mis-	4r	.
.	.	.	.	4F	-si-	[4c	in
!!LO:PB:g=original
=232	=232	=232	=232	=232	=232	=232	=232
4r	.	1r	.	4.A	-o-	4c]	.
4F	re-	.	.	.	.	4c	re-
.	.	.	.	8B-y	.	.	.
4F	-mis-	.	.	2c	.	4A	-mis-
4F	-si-	.	.	.	.	4F	-si-
=233	=233	=233	=233	=233	=233	=233	=233
4.F	-o-	1r	.	4A	.	4.A	-o-
.	.	.	.	4F	.	.	.
8E	.	.	.	.	.	8B-y	.
2C	-nem	.	.	4.G	-nem	2c	-nem
.	.	.	.	8A	.	.	.
=234	=234	=234	=234	=234	=234	=234	=234
*M3/2	*	*M3/2	*	*M3/2	*	*M3/2	*
*met(3)	*	*met(3)	*	*met(3)	*	*met(3)	*
!!LO:TX:t=[whole] = [whole-dot]
!!LO:TX:a:t=[3]
*	*	*	*	*lig	*	*	*
*	*	*	*	*col	*	*	*
1.BB-y	pec-	[1.F	Et	1B-y	pec-	1d	pec-
.	.	.	.	[2F	.	2d	-ca-
=235	=235	=235	=235	=235	=235	=235	=235
*	*	*	*	*	*	*lig	*
1BB-y	-ca-	1.F]	.	2F]	.	2d	-to-
*	*	*	*	*Xlig	*	*	*
*	*	*	*	*lig	*	*	*
.	.	.	.	2D	-ca-	2B-y	.
*	*	*	*	*	*	*Xlig	*
2AA	.	.	.	2C	.	2c	.
*	*	*	*	*Xcol	*	*	*
*	*	*	*	*Xlig	*	*	*
=236	=236	=236	=236	=236	=236	=236	=236
*	*	*lig	*	*	*	*	*
*	*	*col	*	*	*	*	*
1GG	-to-	[1.G	ex-	1D	-to-	2.B-y	.
.	.	.	.	.	.	4c	.
2BB-y	-rum.	.	.	2D	-rum.	2d	.
=237	=237	=237	=237	=237	=237	=237	=237
1C	Et	2G]	.	1C	Et	1e	-rum.
.	.	1A	.	.	.	.	.
*	*	*Xcol	*	*	*	*	*
*	*	*Xlig	*	*	*	*	*
2AA	ex-	.	.	[2F	ex-	2f	.
!!LO:LB:g=original
=238	=238	=238	=238	=238	=238	=238	=238
*col	*	*	*	*	*	*	*
1GG	-spe-	1B-y	-spe-	4F]	.	1g	Et
.	.	.	.	4D	.	.	.
.	.	.	.	2E	-spe-	.	.
*lig	*	*	*	*	*	*	*
[2FF	.	2A	.	2F	-cto	2c	ex-
=239	=239	=239	=239	=239	=239	=239	=239
2FF]	.	2F	.	1c	re-	1f	-spe-
1C	.	1G	.	.	.	.	.
*Xlig	*	*	*	*	*	*	*
*Xcol	*	*	*	*	*	*	*
.	.	.	.	2c	-sur-	2e	.
=240	=240	=240	=240	=240	=240	=240	=240
1.FF	-cto	1F	-cto	2.A	-re-	1f	-cto
.	.	.	.	4B-y	.	.	.
.	.	2r	.	2c	.	2f	re-
=241	=241	=241	=241	=241	=241	=241	=241
*	*	*	*	*lig	*	*	*
2GG	re-	1B-y	re-	2B-y	-cti-	2d	.
1EE	-sur-	.	.	1G	.	1g	-sur-
*	*	*	*	*Xlig	*	*	*
.	.	2G	-sur-	.	.	.	.
=242	=242	=242	=242	=242	=242	=242	=242
*	*	*	*	*	*	*col	*
*lig	*	*	*	*	*	*	*
*col	*	*	*	*	*	*	*
1FF	-re-	1A	-re-	1F	-o-	1c	-re-
[2C	-cti-	2G	-cti-	2E	.	2c	-cti-
=243	=243	=243	=243	=243	=243	=243	=243
2C]	.	1c	-o-	1G	.	2c	-o-
1D	-o-	.	.	.	.	1f	.
*Xlig	*	*	*	*	*	*	*
*	*	*	*	*	*	*Xcol	*
.	.	2B-	.	2F	-nem	.	.
!!LO:LB:g=original
=244	=244	=244	=244	=244	=244	=244	=244
*	*	*col	*	*	*	*	*
*lig	*	*	*	*	*	*	*
1C	-nem	1c	-nem	2.G	mor-	1e	-nem
.	.	.	.	4A	.	.	.
*	*	*lig	*	*	*	*	*
[2GG	mor-	2B-y	mor-	4B-y	.	2d	.
.	.	.	.	4c	.	.	.
=245	=245	=245	=245	=245	=245	=245	=245
2GG]	.	2G	.	1.d	-tu-	1g	mor-
1D	-tu-	1A	.	.	.	.	.
*Xlig	*	*Xcol	*	*	*	*	*
*Xcol	*	*Xlig	*	*	*	*	*
.	.	.	.	.	.	2f	.
=246	=246	=246	=246	=246	=246	=246	=246
*	*	*lig	*	*	*	*	*
2GG	.	2G	-tu-	1.B-y	-o-	2e	-tu-
1BB-y	-o-	2F	.	.	.	2.d	-o-
*	*	*Xlig	*	*	*	*	*
.	.	2G	.	.	.	.	.
.	.	.	.	.	.	4c	.
=247	=247	=247	=247	=247	=247	=247	=247
*	*	*lig	*	*	*	*	*
2C	.	2E	-o-	1G	-rum.	1c	.
1GG	-rum.	1D	.	.	.	.	.
*	*	*Xlig	*	*	*	*	*
.	.	.	.	2r	.	2Bni	.
=248	=248	=248	=248	=248	=248	=248	=248
2.AA	Et	1C	-rum.	2.E	Et	1.c	-rum.
4GG	.	.	.	4F	.	.	.
2EE	.	2r	.	2G	.	.	.
=249	=249	=249	=249	=249	=249	=249	=249
*lig	*	*	*	*	*	*	*
2FF	vi-	2.C	Et	1F	vi-	1.r	.
2AA	.	.	.	.	.	.	.
*Xlig	*	*	*	*	*	*	*
.	.	4D	.	.	.	.	.
2GG	-tam	2E	.	2G	-tam-	.	.
!!LO:LB:g=original
=250	=250	=250	=250	=250	=250	=250	=250
1FF	ven-	1F	vi-	1A	-ven-	2.c	Et
.	.	.	.	.	.	4d	.
2C	-tu-	2G	-tam	2G	-tu-	2e	.
=251	=251	=251	=251	=251	=251	=251	=251
*lig	*	*	*	*	*	*	*
2FF	-ri	1A	ven-	1F	-ri	1f	vi-
2F	se-	.	.	.	.	.	.
*Xlig	*	*	*	*	*	*	*
2E	-cu-	2G	-tu-	2C	se-	2g	-tam
=252	=252	=252	=252	=252	=252	=252	=252
*	*	*	*	*col	*	*	*
*	*	*lig	*	*	*	*	*
2F	-li.	2F	-ri	1c	-culi.	2a	ven-
2C	A-	2c	se-	.	.	2a	-tu-
*	*	*Xlig	*	*	*	*	*
2BB-y	.	2d	-cu-	2r	.	2b-y	-ri
=253	=253	=253	=253	=253	=253	=253	=253
*lig	*	*	*	*	*	*	*
2C	.	2c	-li.	2r	.	2a	se-
2.E-X	.	2.B-y	A-	2.G	-A-	2.g	-cu-
*Xlig	*	*	*	*	*	*	*
4F	.	4A	.	4A	.	4f	-li.
*	*	*	*	*Xcol	*	*	*
=254	=254	=254	=254	=254	=254	=254	=254
2D	.	2F	.	2B-y	.	1f	A-
*lig	*	*	*	*	*	*	*
1C	-men.	1G	.	1c	.	.	.
.	.	.	.	.	.	2e	.
=255	=255	=255	=255	=255	=255	=255	=255
1.FFl	.	1.Fl	-men.	1.cl	-men.	1.fl	-men.
*Xlig	*	*	*	*	*	*	*
==	==	==	==	==	==	==	==
*-	*-	*-	*-	*-	*-	*-	*-
!!!system-decoration: [*]
!!!RDF**kern: j = editorial accidental, optional, paren up
!!!RDF**kern: i = editorial accidental
!!!RDF**kern: l = terminal breve
!!!PTL: Gaspar van Weerbeke: Collected Works. I. Masses, Part 1
!!!PPR: American Institute of Musicology
!!!PC#: Corpus Mensurabilis Musicae 106/I.1
!!!PDT: 2016
!!!PED: Pavanello, Agnese
!!!YEM: CC-BY-SA 4.0 (https://creativecommons.org/licenses/by-nc/4.0/legalcode)
!!!EED: Mair-Gruber, Roland
!!!EEV: 2021/10/12
